**kern	**kern
*staff2	*staff1
*clefF4	*clefG2
*k[b-]	*k[b-]
*M3/4	*M3/4
=-	=-
4r	4c
=101	=101
8r	4f
(8c	.
8B-L	4c
8AJ	.
8GL	(8.fL
8FJ	.
.	32eLL
.	32fJJJ
=102	=102
8EL	4g
8DJ	.
8CL	4c)
8BB-J	.
8AAL	(8.gL
8GGJ	.
.	32fLL
.	32gJJJ
=103	=103
8FFL	4a
8EEJ	.
8DDL	4f)
8CCJ	.
8BBB-L	4g 4b-
8GGGJ)	.
=104	=104
8CC'L	(4f 4a
(8CJ	.
8DL	4e) 4g
8CJ	.
8BBL	4cc
8BB-J)	.
=105	=105
(8AAL	(4cc
8FJ	.
8GGL	4b-
8EJ	.
8FFL	4a)
8FJ)	.
=106	=106
*^	*
(8BB-L	2.BB-	(4dd
8DJ	.	.
8F#L	.	8ccL
8GJ	.	8b-J
8AL	.	8aL
8B-J)	.	8gJ)
*v	*v	*
=107	=107
8CL	(4A 4f
8DJ	.
8BB-L	4B-) 4g
8GGJ	.
8CL	4G 4e
8CCJ	.
=108	=108
4FF	4A 4f
4F	4r
*-	*-
